X:109
T:Wounded Huzur. LIT.109, The
M:6/8
Q:3/8=90
L:1/8
B:Wm. Litten MS, 1802
Z:Village Music Project 2017 Anne Wride
K:Am
A/G/ | E2A A2B | c3 B2A | B/c/d/c/B/A/ GAB | c3 e2c | e/d/c/B/A/G/ E2 A | A2BA2 ||
|:A/B/ | c2ee2f | e3-e2d/c/ | B/A/G/A/B/c/ d3 | d2ea2g |a3 b2c' | e2bg3 |
a2bc'3 | b2a g2f/e/ | d>gB GAB | cec e/d/c/B/A/G/ | E2A A2B | A3-A2 :|

